X: 2
T: College Hornpipe
R: hornpipe, reel
O: c.1766
N: H&C  p.136, Harding 6 (in C), Hunter 336, Skye p.173, Litten p.19, BSFC II-7
Z: John Chambers <jc:trillian.mit.edu>
M: 4/4
L: 1/8
K: G
g>f \
| "G"g2 G2 G2dc | Bd g2 g2 bg \
| "A7"a2 A2 A2 AG | "D7"FA d2 d2 ef \
| "G"gfed edcB |
| "C"cBAG "(A7)"AGFE \
| "D7"DGFA GBAc | "G"B2G2 G2 :: dc \
| "G"Bdgd Bdgd | "C"e2 c2 c2 ed |
| "A7"^ce ae ce ae | "D7"f2 d2 d2 ef \
| "G"gfed edcB | "C"cBAG "(A7)"AGFE \
| "D7"DGFA GBAc | "G"B2G2 G2 :|

%%sep 2 1 500

